build/assets/file_type_cheader.svg

<?xml version="1.0" encoding="UTF-8" standalone="no"?>
<svg
   width="16"
   height="16"
   viewBox="0 0 16 16"
   version="1.1"
   id="svg7"
   sodipodi:docname="file_type_cheader.svg"
   inkscape:version="1.2.2 (b0a8486541, 2022-12-01)"
   xmlns:inkscape="http://www.inkscape.org/namespaces/inkscape"
   xmlns:sodipodi="http://sodipodi.sourceforge.net/DTD/sodipodi-0.dtd"
   xmlns="http://www.w3.org/2000/svg"
   xmlns:svg="http://www.w3.org/2000/svg">
  <sodipodi:namedview
     id="namedview8"
     pagecolor="#ffffff"
     bordercolor="#000000"
     borderopacity="0.25"
     inkscape:showpageshadow="2"
     inkscape:pageopacity="0.0"
     inkscape:pagecheckerboard="0"
     inkscape:deskcolor="#d1d1d1"
     showgrid="false"
     inkscape:zoom="64.1875"
     inkscape:cx="7.6183057"
     inkscape:cy="8"
     inkscape:window-width="3840"
     inkscape:window-height="2087"
     inkscape:window-x="0"
     inkscape:window-y="0"
     inkscape:window-maximized="1"
     inkscape:current-layer="svg7" />
  <defs
     id="defs4">
    <style
       id="style2">
      .i-color {
        fill: #000;
        fill-rule: evenodd;
      }
    </style>
  </defs>
  <path
     id="rect229"
     style="stroke-width:1.16544"
     d="m 10,2 h 3 V 14 H 10 Z M 5.8597856,6.4810128 h 4.2804284 v 3 H 5.8597856 Z M 3,2 H 6 V 14 H 3 Z" />
</svg>

<?xml version="1.0" encoding="UTF-8"?>
<svg width="16" height="16" version="1.1" viewBox="0 0 16 16" xmlns="http://www.w3.org/2000/svg">
  <defs>
    <style>
      .i-color {
        fill: #000;
        fill-rule: evenodd;
      }
    </style>
  </defs>
 <path class="i-color" d="m10 2h3v12h-3zm-4.1402 4.481h4.2804v3h-4.2804zm-2.8598-4.481h3v12h-3z" stroke-width="1.1654"/>
</svg>
